dist/img/svg/property__item-icon--5.svg

<svg width="48" height="48" viewBox="0 0 48 48" fill="none" xmlns="http://www.w3.org/2000/svg">
<circle cx="24" cy="24" r="24" fill="#1F2120"/>
<path d="M23.9999 13C21.7939 13 19.9999 14.794 19.9999 17H16.9999C16.0009 17 15.1696 17.6945 15.0136 18.7285L14.0214 31.7793C13.9344 32.3513 14.1126 32.9255 14.5096 33.3555C14.8886 33.7655 15.4319 34 15.9999 34H31.9999C32.5679 34 33.1112 33.7654 33.4882 33.3574C33.8872 32.9274 34.0652 32.3525 33.9862 31.8535L32.9882 18.7285L32.9784 18.6523C32.8304 17.6953 31.9989 17 30.9999 17H27.9999C27.9999 14.794 26.2059 13 23.9999 13ZM23.9999 15C25.1029 15 25.9999 15.897 25.9999 17H21.9999C21.9999 15.897 22.8969 15 23.9999 15ZM16.9979 19L31.0038 19.0059L31.9999 32L16.0077 32.0059L16.9979 19ZM18.6757 20.9551V28.4199H20.3104V26.9238L20.7733 26.4629L21.9198 28.4199H23.7928L21.8319 25.3262L23.6718 23.1641H21.7108L20.4764 24.6992L20.3124 24.918V20.9551H18.6757ZM26.4061 23.0684C25.9721 23.0684 25.5925 23.1794 25.2655 23.4004C24.9385 23.6214 24.6876 23.9387 24.5116 24.3457C24.3376 24.7537 24.2499 25.2239 24.2499 25.7539H24.2518V25.8125C24.2518 26.6355 24.4486 27.2913 24.8436 27.7812C25.2396 28.2723 25.7573 28.5156 26.3983 28.5156C26.8763 28.5156 27.2738 28.3431 27.5878 27.9961V28.1621C27.5878 28.9061 27.2229 29.2773 26.4979 29.2773C25.9999 29.2773 25.5988 29.0973 25.2948 28.7383L24.6093 29.7012C24.8003 29.9332 25.0764 30.1216 25.4374 30.2676C25.7984 30.4146 26.1715 30.4863 26.5565 30.4863C27.0935 30.4863 27.5665 30.3969 27.9745 30.2129C28.3835 30.0309 28.6931 29.7687 28.9081 29.4277C29.1251 29.0857 29.2323 28.6837 29.2323 28.2207V23.1641H27.746L27.6874 23.6211C27.3814 23.2521 26.9531 23.0684 26.4061 23.0684ZM26.8241 24.3301C27.1741 24.3301 27.4278 24.4505 27.5858 24.6895V26.8984C27.4238 27.1344 27.1663 27.2539 26.8143 27.2539C26.5223 27.2539 26.2956 27.128 26.1346 26.877C25.9726 26.627 25.8905 26.2855 25.8905 25.8555C25.8905 25.3595 25.9746 24.9817 26.1386 24.7207C26.3046 24.4607 26.5321 24.3301 26.8241 24.3301Z" fill="#F8F8F8"/>
</svg>

<svg width="48" height="48" viewBox="0 0 48 48" fill="none" xmlns="http://www.w3.org/2000/svg"><circle cx="24" cy="24" r="24" fill="#1F2120"/><path d="M24 13c-2.206 0-4 1.794-4 4h-3c-1 0-1.83.695-1.986 1.729l-.993 13.05a1.894 1.894 0 00.489 1.576c.379.41.922.645 1.49.645h16a2.03 2.03 0 001.488-.643c.4-.43.577-1.005.498-1.503l-.998-13.125-.01-.077C32.83 17.695 31.998 17 31 17h-3c0-2.206-1.794-4-4-4zm0 2c1.103 0 2 .897 2 2h-4c0-1.103.897-2 2-2zm-7.002 4l14.006.006L32 32l-15.992.006.99-13.006zm1.678 1.955v7.465h1.634v-1.496l.463-.461 1.147 1.957h1.873l-1.961-3.094 1.84-2.162H21.71L20.476 24.7l-.164.219v-3.963h-1.636zm7.73 2.113c-.434 0-.813.111-1.14.332-.327.221-.578.539-.754.946-.174.408-.262.878-.262 1.408h.002v.058c0 .823.197 1.48.592 1.97.396.49.913.734 1.554.734.478 0 .876-.173 1.19-.52v.166c0 .744-.365 1.115-1.09 1.115-.498 0-.9-.18-1.203-.539l-.686.963c.191.232.467.42.828.567a2.94 2.94 0 001.12.218c.537 0 1.01-.09 1.418-.273.409-.182.718-.444.933-.785.217-.342.324-.744.324-1.207v-5.057h-1.486l-.059.457c-.306-.369-.734-.553-1.28-.553zm.418 1.262c.35 0 .604.12.762.36v2.208c-.162.236-.42.356-.772.356a.764.764 0 01-.68-.377c-.161-.25-.244-.591-.244-1.021 0-.497.085-.874.249-1.135.166-.26.393-.39.685-.39z" fill="#F8F8F8"/></svg>
